X:1
T:Chistmas Morning
T:William Oscar Perkins
T:Chistmas Morning
T:Public Domain
T:Public Domain
C:William Oscar Perkins
Z:Public Domain
%%score ( 1 2 ) 3
L:1/8
M:6/8
K:Bb
V:1 treble 
V:2 treble 
V:3 bass 
V:1
 [DF] | [DF]2 [DB] [DB]2 [DB] | [Ec]2 [CA] [DB]2 [Fc] | [Fd]>[Ec][DB] [EA]2 [DB] | [Fc]3 [Fc]2 F | %5
w: 1.~We|wish you all a|hap- py day, This|beau- ti- ful Christ- mas|morn- ing! So|
w: 2.~A|mer- ry Christ- mas|to you all, This|beau- ti- ful Christ- mas|morn- ing! “Good|
w: 3.~On|Beth- l’hem’s plains the|shep- herds watched, One|beau- ti- ful Christ- mas|morn- ing! Where|
w: 4.~On|Beth- l’hem’s plains we|can- not lie, This|beau- ti- ful Christ- mas|morn- ing! Nor|
 [DF]2 [DB] [DB]2 [Fd] | [Ge]2 [EG] [EG]2 [Ge] | [Fd]>[Ec][DB] [Ec]2 [CA] | [DB]3 [DB]2 F | %9
w: ly shines the sun’s|clear ray, This beau-|ti- ful Christ- mas morn-|ing! For this|
w: to men,” the an-|gels’ call, One beau-|ti- ful Christ- mas morn-|ing! And who|
w: lent lay the slum-|b’ring flock, That beau-|ti- ful Christ- mas morn-|ing! When sud-|
w: the an- gel host|on high, This beau-|ti- ful Christ- mas morn-|ing! But joy-|
 [DB]>[DB][DB] [FB][EA][DB] | [Fc]2 [Ac] [Ac]2 F | [Ac]2 [Ac] ([Ac][GB])[Ac] | [Bd]2 [Fd] [Fd]2 F | %13
w: the morn when the Day Star|rose, To light the|from all our * woes,|And heav- en- ly|
w: be mer- ry and glad to-|day, But those whose|is washed a- * way?|With plea- sure, we|
w: ly all the bright an- gel|throng Sang in the|their Christ- mas * song,|Sang “Glo- ry to|
w: ly we our sweet off- ’ring|bring, Of praise, to|the new- born * king,|In Beth- le- hem|
 [DB]>[DB][DB] [Fd]2 [F_Ad] | [Ge]2 [EG] [EG]2 [Ge] | [Fd]>[Ec][DB] [Ec]2 [CA] | [DB]3 [DB]2 |] %17
w: and joy dis- close, One|beau- ti- ful Christ-|mas morn- ing. * *||
w: thy peace- ful ray, O|beau- ti- ful Christ-|mas morn- ing. * *||
w: good will to men!” That|beau- ti- ful Christ-|mas morn- ing. * *||
w: His praise we sing, This|beau- ti- ful Christ-|mas morn- ing. * *||
V:2
 x | x6 | x6 | x6 | x5 F | x6 | x6 | x6 | x5 F | x6 | x5 F | x6 | x5 F | x6 | x6 | x6 | x5 |] %17
w: ||||bright-||||was||way||light|||||
w: ||||will||||should||guilt||hail|||||
w: ||||si-||||den-||sky,||God,|||||
w: ||||view||||ful-||hail||born,|||||
V:3
 B,, | B,,2 B,, B,,2 B,, | F,2 F, B,,2 A,, | B,,>C,D, C,2 B,, | [F,A,]3 [F,A,]2 F, | %5
 B,,2 B,, B,,2 B,, | E,2 E, E,2 E, | F,>F,F, F,2 F, | B,,3 B,,2 F, | B,,>B,,B,, D,C,B,, | %10
 F,2 F, F,2 F, | F,2 F, F,2 F, | B,2 [B,,B,] [B,,B,]2 F, | B,,>B,,B,, B,,2 B,, | E,2 E, E,2 E, | %15
 F,>F,F, F,2 F, | B,,3 B,,2 |] %17

